icons/1_Primary/minerstat.svg

<svg xmlns="http://www.w3.org/2000/svg" width="1024" height="1024" fill="none">
   <g clip-path="url(#a)">
      <path fill="#728DBE" d="M512 1024c282.77 0 512-229.23 512-512S794.77 0 512 0 0 229.23 0 512s229.23 512 512 512Z"/>
      <path fill="#fff" d="M668.45 310.69a45 45 0 0 1 44.86 44.86v312.9a45 45 0 0 1-44.86 44.86h-312.9a45.083 45.083 0 0 1-44.86-44.86v-312.9a45.083 45.083 0 0 1 44.86-44.86h312.9Zm0-22.37h-312.9a67.353 67.353 0 0 0-67.23 67.23v312.9a67.352 67.352 0 0 0 67.23 67.23h312.9a67.352 67.352 0 0 0 67.23-67.23v-312.9a67.353 67.353 0 0 0-67.23-67.23ZM567.92 415.07A77.997 77.997 0 0 0 512 438.68a78.215 78.215 0 0 0-85.509-17.833 78.21 78.21 0 0 0-48.701 72.513v93.2a22.37 22.37 0 0 0 44.74 0v-93.2a33.547 33.547 0 0 1 33.55-33.55 33.547 33.547 0 0 1 33.55 33.55v93.2a22.37 22.37 0 0 0 44.74 0v-93.2a33.547 33.547 0 0 1 33.55-33.55 33.547 33.547 0 0 1 33.55 33.55v93.2a22.37 22.37 0 0 0 44.74 0v-93.2a78.445 78.445 0 0 0-22.974-55.316 78.445 78.445 0 0 0-55.316-22.974Z"/>
   </g>
   <defs>
      <clipPath id="a">
         <path fill="#fff" d="M0 0h1024v1024H0z"/>
      </clipPath>
   </defs>
</svg>

<svg width="1024" height="1024" viewBox="0 0 1024 1024" fill="none" xmlns="http://www.w3.org/2000/svg">
<g clip-path="url(#clip0_2_2820)">
<path d="M512 1024C794.77 1024 1024 794.77 1024 512C1024 229.23 794.77 0 512 0C229.23 0 0 229.23 0 512C0 794.77 229.23 1024 512 1024Z" fill="#728DBE"/>
<path d="M668.45 310.69C680.336 310.727 691.725 315.465 700.13 323.87C708.535 332.275 713.273 343.664 713.31 355.55V668.45C713.273 680.336 708.535 691.725 700.13 700.13C691.725 708.535 680.336 713.273 668.45 713.31H355.55C343.67 713.252 332.294 708.507 323.893 700.107C315.493 691.707 310.748 680.33 310.69 668.45V355.55C310.748 343.67 315.493 332.294 323.893 323.893C332.294 315.493 343.67 310.748 355.55 310.69H668.45ZM668.45 288.32H355.55C337.729 288.352 320.648 295.445 308.046 308.046C295.445 320.648 288.352 337.729 288.32 355.55V668.45C288.352 686.271 295.445 703.353 308.046 715.954C320.648 728.555 337.729 735.648 355.55 735.68H668.45C686.271 735.648 703.353 728.555 715.954 715.954C728.555 703.353 735.648 686.271 735.68 668.45V355.55C735.648 337.729 728.555 320.648 715.954 308.046C703.353 295.445 686.271 288.352 668.45 288.32ZM567.92 415.07C557.494 415.068 547.174 417.157 537.569 421.212C527.964 425.268 519.27 431.207 512 438.68C501.138 427.539 487.199 419.891 471.967 416.714C456.734 413.537 440.901 414.976 426.491 420.847C412.081 426.718 399.749 436.754 391.074 449.671C382.399 462.589 377.773 477.8 377.79 493.36V586.56C377.79 592.493 380.147 598.183 384.342 602.378C388.537 606.573 394.227 608.93 400.16 608.93C406.093 608.93 411.783 606.573 415.978 602.378C420.173 598.183 422.53 592.493 422.53 586.56V493.36C422.53 484.462 426.065 475.928 432.357 469.637C438.648 463.345 447.182 459.81 456.08 459.81C464.978 459.81 473.512 463.345 479.803 469.637C486.095 475.928 489.63 484.462 489.63 493.36V586.56C489.63 592.493 491.987 598.183 496.182 602.378C500.377 606.573 506.067 608.93 512 608.93C517.933 608.93 523.623 606.573 527.818 602.378C532.013 598.183 534.37 592.493 534.37 586.56V493.36C534.37 484.462 537.905 475.928 544.197 469.637C550.488 463.345 559.022 459.81 567.92 459.81C576.818 459.81 585.352 463.345 591.643 469.637C597.935 475.928 601.47 484.462 601.47 493.36V586.56C601.47 592.493 603.827 598.183 608.022 602.378C612.217 606.573 617.907 608.93 623.84 608.93C629.773 608.93 635.463 606.573 639.658 602.378C643.853 598.183 646.21 592.493 646.21 586.56V493.36C646.17 472.608 637.909 452.718 623.236 438.044C608.562 423.371 588.672 415.11 567.92 415.07Z" fill="white"/>
</g>
<defs>
<clipPath id="clip0_2_2820">
<rect width="1024" height="1024" fill="white"/>
</clipPath>
</defs>
</svg>
